X: 9061
T: High in the Reeks (with piano acc.)
C: BB
R: polka
M: 2/4
Q: 300
L: 1/8
V: 1 program 1 21 %acc
V: 2 volume=70 clef=bass m=D program 1 00
K: Em
[V:1] "Em"E>F GA | "Bm"B>c BA | "G"GE FE | "D"DE "Bm"B,2 |
[V:2] [B,4E,4G4]|[B,,4D4F4]|[G,,4D4B,4]|[D,2A,,2F2][B,,2F2D2]|
%
[V:1] "Em"E>F GA | "Bm"B>c BA | "G"GB "D"FA | "Em"GF E2 :|
[V:2] [B,4E,4G4]|[B,,4D4F4]|[G,,2D2B,2][D,2A,,2F2]|[B,4E,4G4] :|
%
[V:1] "Bm"B>^c dB | "Em"e>f gf | "Em"eB "G"dB | "D"Ad "Bm"B2 |
[V:2] [B,,4D4F,4]|[B,4E,4G4]|[B,2G2E,2][G,,2D2B,2]|[D,2A,,2F2][B,,2F2D2]|
%
[V:1] "Em"eB GB | "D"d>^c BA | "G"GB "D"FA | "Em"GF E2 :|
[V:2] [B,4E,4G4]| [D,4A4F4]|[G,2D2B2][D,2A,,2F2]|[B,4E,4G4]:|
%tune repeat
[V:1] "Em"E>F GA | "Bm"B>c BA | "G"GE FE | "D"DE "Bm"B,2 |
[V:2] [B,4E,4G4]|[B,,4D4F4]|[G,,4D4B,4]|[D,2A,,2F2][B,,2F2D2]|
%
[V:1] "Em"E>F GA | "Bm"B>c BA | "G"GB "D"FA | "Em"GF E2 :|
[V:2] [B,4E,4G4]|[B,,4D4F4]|[G,,2D2B,2][D,2A,,2F2]|[B,4E,4G4] :|
%
[V:1] "Bm"B>^c dB | "Em"e>f gf | "Em"eB "G"dB | "D"Ad "Bm"B2 |
[V:2] [B,,4D4F,4]|[B,4E,4G4]|[B,2G2E,2][G,,2D2B,2]|[D,2A,,2F2][B,,2F2D2]|
%
[V:1] "Em"eB GB | "D"d>^c BA | "G"GB "D"FA |1 "Em"GF E2 :|2 "Em"GF E2-|HE4||
[V:2] [B,4E,4G4]| [D,4A4F4]|[G,2D2B2][D,2A,,2F2]|1 [B,4E,4G4]:|2 [B,4-E,4-G4-]|\
H[B,4E,4G4]||
%%%%%%%%%%%%%%%%%%%%%%%%%%%%%%%%%%%%%%%%%%%
